X:8766
T:Kuppari Eeva
C:trad.
M:2/4
L:1/8
K:Am
A>B AB|cA Ac|BG GB|c/B/A/G/ A[GE]|\
A>B AB|cA A2|d2 cB|AG A2 :|
|:e>c ce|dB Bc|de/d/ cB|AB cA|\
e>c ce|dB Bc|de/d/ cB|AG A2 :|
